X: 245
T: Forcers Jigg
M:6/8
L:1/8
S: 8: MCJLSH3 http://www.cpartington.plus.com/links/Walsh.abc
Z: Pete Stewart 2004
B: Walsh "Third Book of the most Celebrated jiggs, Lancashire hornpipes, ..."
K:GMin
g3G2=B | c2CC3 | cgc =bgc | =B3_AG3 | ceg c_ag | _a2 FF3 | Bdg Bgf | g2 EE3 | BdB BbB | B
dB Bb_a | gfe fBd | e2EE3 || bBB Bdf | f2FF3 | c'cc cef | g2GG3 |
cgc =bgc | =B2GG3 | CGC =B,GC | =B,2A,G,3 | gGc Dc=B | c2CC3 ||

%%sep 1 1 500
%%sep 1 1 500
